lib/brands/icons/prettier.svg

<svg xmlns="http://www.w3.org/2000/svg" fill="none" aria-hidden="true" viewBox="0 0 48 48"><g id="prettier-Icon"><g id="Group"><g id="Union"><path fill="#BF85BF" d="M29.2969 12.8572H22.1317C21.7434 12.8572 21.4286 13.172 21.4286 13.5603V13.8683C21.4286 14.2567 21.7434 14.5715 22.1317 14.5715H29.2969C29.6852 14.5715 30 14.2567 30 13.8683V13.5603C30 13.172 29.6852 12.8572 29.2969 12.8572Z"/><path fill="#BF85BF" d="M6.70312 19.7143H15.5826C15.9709 19.7143 16.2857 20.0291 16.2857 20.4174V20.7255C16.2857 21.1138 15.9709 21.4286 15.5826 21.4286H6.70312C6.3148 21.4286 6 21.1138 6 20.7255V20.4174C6 20.0291 6.3148 19.7143 6.70312 19.7143Z"/><path fill="#BF85BF" d="M32.7254 26.5714H27.2745C26.8862 26.5714 26.5714 26.8862 26.5714 27.2745V27.5826C26.5714 27.9709 26.8862 28.2857 27.2745 28.2857H32.7254C33.1138 28.2857 33.4286 27.9709 33.4286 27.5826V27.2745C33.4286 26.8862 33.1138 26.5714 32.7254 26.5714Z"/><path fill="#BF85BF" d="M15.5826 33.4286H6.70312C6.3148 33.4286 6 33.7434 6 34.1317V34.4397C6 34.8281 6.3148 35.1429 6.70312 35.1429H15.5826C15.9709 35.1429 16.2857 34.8281 16.2857 34.4397V34.1317C16.2857 33.7434 15.9709 33.4286 15.5826 33.4286Z"/><path fill="#BF85BF" d="M6.70312 30H8.72545C9.11377 30 9.42857 30.3148 9.42857 30.7031V31.0112C9.42857 31.3995 9.11377 31.7143 8.72545 31.7143H6.70312C6.3148 31.7143 6 31.3995 6 31.0112V30.7031C6 30.3148 6.3148 30 6.70312 30Z"/></g><g id="Union_2"><path fill="#EA5E5E" d="M6.70312 9.42859H12.154C12.5423 9.42859 12.8571 9.74339 12.8571 10.1317V10.4397C12.8571 10.8281 12.5423 11.1429 12.154 11.1429H6.70312C6.3148 11.1429 6 10.8281 6 10.4397V10.1317C6 9.74339 6.3148 9.42859 6.70312 9.42859Z"/><path fill="#EA5E5E" d="M24.1541 26.5714H16.9889C16.6006 26.5714 16.2858 26.8862 16.2858 27.2745V27.5826C16.2858 27.9709 16.6006 28.2857 16.9889 28.2857H24.1541C24.5424 28.2857 24.8572 27.9709 24.8572 27.5826V27.2745C24.8572 26.8862 24.5424 26.5714 24.1541 26.5714Z"/><path fill="#EA5E5E" d="M15.5826 40.2857H6.70312C6.3148 40.2857 6 40.6005 6 40.9888V41.2969C6 41.6852 6.3148 42 6.70312 42H15.5826C15.9709 42 16.2857 41.6852 16.2857 41.2969V40.9888C16.2857 40.6005 15.9709 40.2857 15.5826 40.2857Z"/><path fill="#EA5E5E" d="M8.72545 23.1429H6.70312C6.3148 23.1429 6 23.4577 6 23.846V24.154C6 24.5424 6.3148 24.8572 6.70312 24.8572H8.72545C9.11377 24.8572 9.42857 24.5424 9.42857 24.154V23.846C9.42857 23.4577 9.11377 23.1429 8.72545 23.1429Z"/><path fill="#EA5E5E" d="M27.2745 16.2857H36.154C36.5423 16.2857 36.8571 16.6005 36.8571 16.9888V17.2969C36.8571 17.6852 36.5423 18 36.154 18H27.2745C26.8862 18 26.5714 17.6852 26.5714 17.2969V16.9888C26.5714 16.6005 26.8862 16.2857 27.2745 16.2857Z"/></g><g id="Union_3"><path fill="#F7BA3E" d="M15.2745 9.42859H32.7254C33.1138 9.42859 33.4286 9.74339 33.4286 10.1317V10.4397C33.4286 10.8281 33.1138 11.1429 32.7254 11.1429H15.2745C14.8862 11.1429 14.5714 10.8281 14.5714 10.4397V10.1317C14.5714 9.74339 14.8862 9.42859 15.2745 9.42859Z"/><path fill="#F7BA3E" d="M13.5602 36.8571H15.5826C15.9709 36.8571 16.2857 37.1719 16.2857 37.5602V37.8683C16.2857 38.2566 15.9709 38.5714 15.5826 38.5714H13.5602C13.1719 38.5714 12.8571 38.2566 12.8571 37.8683V37.5602C12.8571 37.1719 13.1719 36.8571 13.5602 36.8571Z"/><path fill="#F7BA3E" d="M10.4397 16.2857H6.70312C6.3148 16.2857 6 16.6005 6 16.9888V17.2969C6 17.6852 6.3148 18 6.70312 18H10.4397C10.8281 18 11.1429 17.6852 11.1429 17.2969V16.9888C11.1429 16.6005 10.8281 16.2857 10.4397 16.2857Z"/><path fill="#F7BA3E" d="M11.8459 23.1429H17.2968C17.6852 23.1429 18 23.4577 18 23.846V24.154C18 24.5424 17.6852 24.8572 17.2968 24.8572H11.8459C11.4576 24.8572 11.1428 24.5424 11.1428 24.154V23.846C11.1428 23.4577 11.4576 23.1429 11.8459 23.1429Z"/><path fill="#F7BA3E" d="M27.5826 30H11.8459C11.4576 30 11.1428 30.3148 11.1428 30.7031V31.0112C11.1428 31.3995 11.4576 31.7143 11.8459 31.7143H27.5826C27.9709 31.7143 28.2857 31.3995 28.2857 31.0112V30.7031C28.2857 30.3148 27.9709 30 27.5826 30Z"/><path fill="#F7BA3E" d="M27.2745 19.7143H36.154C36.5423 19.7143 36.8571 20.0291 36.8571 20.4174V20.7255C36.8571 21.1138 36.5423 21.4286 36.154 21.4286H27.2745C26.8862 21.4286 26.5714 21.1138 26.5714 20.7255V20.4174C26.5714 20.0291 26.8862 19.7143 27.2745 19.7143Z"/></g><g id="Union_4"><path fill="#56B3B4" d="M6.70312 6H27.5826C27.9709 6 28.2857 6.3148 28.2857 6.70312V7.01116C28.2857 7.39949 27.9709 7.71429 27.5826 7.71429H6.70312C6.3148 7.71429 6 7.39949 6 7.01116V6.70312C6 6.3148 6.3148 6 6.70312 6Z"/><path fill="#56B3B4" d="M34.4397 12.8572H32.4174C32.029 12.8572 31.7142 13.172 31.7142 13.5603V13.8683C31.7142 14.2567 32.029 14.5715 32.4174 14.5715H34.4397C34.828 14.5715 35.1428 14.2567 35.1428 13.8683V13.5603C35.1428 13.172 34.828 12.8572 34.4397 12.8572Z"/><path fill="#56B3B4" d="M13.8683 26.5714H6.70312C6.3148 26.5714 6 26.8862 6 27.2745V27.5826C6 27.9709 6.3148 28.2857 6.70312 28.2857H13.8683C14.2566 28.2857 14.5714 27.9709 14.5714 27.5826V27.2745C14.5714 26.8862 14.2566 26.5714 13.8683 26.5714Z"/><path fill="#56B3B4" d="M13.5602 16.2857H15.5826C15.9709 16.2857 16.2857 16.6005 16.2857 16.9888V17.2969C16.2857 17.6852 15.9709 18 15.5826 18H13.5602C13.1719 18 12.8571 17.6852 12.8571 17.2969V16.9888C12.8571 16.6005 13.1719 16.2857 13.5602 16.2857Z"/><path fill="#56B3B4" d="M10.4397 36.8571H6.70312C6.3148 36.8571 6 37.1719 6 37.5602V37.8683C6 38.2566 6.3148 38.5714 6.70312 38.5714H10.4397C10.8281 38.5714 11.1429 38.2566 11.1429 37.8683V37.5602C11.1429 37.1719 10.8281 36.8571 10.4397 36.8571Z"/><path fill="#56B3B4" d="M20.4174 23.1429H34.4397C34.8281 23.1429 35.1429 23.4577 35.1429 23.846V24.154C35.1429 24.5424 34.8281 24.8572 34.4397 24.8572H20.4174C20.0291 24.8572 19.7143 24.5424 19.7143 24.154V23.846C19.7143 23.4577 20.0291 23.1429 20.4174 23.1429Z"/><path fill="#56B3B4" d="M19.0112 12.8572H6.70312C6.3148 12.8572 6 13.172 6 13.5603V13.8683C6 14.2567 6.3148 14.5715 6.70312 14.5715H19.0112C19.3995 14.5715 19.7143 14.2567 19.7143 13.8683V13.5603C19.7143 13.172 19.3995 12.8572 19.0112 12.8572Z"/></g><g id="Union_5" opacity="0.5"><path fill="#D0D4D8" d="M30.7031 6H41.2969C41.6852 6 42 6.3148 42 6.70312V7.01116C42 7.39949 41.6852 7.71429 41.2969 7.71429H30.7031C30.3148 7.71429 30 7.39949 30 7.01116V6.70312C30 6.3148 30.3148 6 30.7031 6Z"/><path fill="#D0D4D8" d="M18.7031 36.8571H25.8683C26.2566 36.8571 26.5714 37.1719 26.5714 37.5602V37.8683C26.5714 38.2566 26.2566 38.5714 25.8683 38.5714H18.7031C18.3148 38.5714 18 38.2566 18 37.8683V37.5602C18 37.1719 18.3148 36.8571 18.7031 36.8571Z"/><path fill="#D0D4D8" d="M28.9888 36.8571H31.0112C31.3995 36.8571 31.7143 37.1719 31.7143 37.5602V37.8683C31.7143 38.2566 31.3995 38.5714 31.0112 38.5714H28.9888C28.6005 38.5714 28.2857 38.2566 28.2857 37.8683V37.5602C28.2857 37.1719 28.6005 36.8571 28.9888 36.8571Z"/><path fill="#D0D4D8" d="M41.2969 36.8571H34.1317C33.7434 36.8571 33.4286 37.1719 33.4286 37.5602V37.8683C33.4286 38.2566 33.7434 38.5714 34.1317 38.5714H41.2969C41.6852 38.5714 42 38.2566 42 37.8683V37.5602C42 37.1719 41.6852 36.8571 41.2969 36.8571Z"/><path fill="#D0D4D8" d="M34.4397 30H30.7031C30.3148 30 30 30.3148 30 30.7031V31.0112C30 31.3995 30.3148 31.7143 30.7031 31.7143H34.4397C34.8281 31.7143 35.1429 31.3995 35.1429 31.0112V30.7031C35.1429 30.3148 34.8281 30 34.4397 30Z"/><path fill="#D0D4D8" d="M37.5603 30H41.2969C41.6852 30 42 30.3148 42 30.7031V31.0112C42 31.3995 41.6852 31.7143 41.2969 31.7143H37.5603C37.172 31.7143 36.8572 31.3995 36.8572 31.0112V30.7031C36.8572 30.3148 37.172 30 37.5603 30Z"/><path fill="#D0D4D8" d="M41.2969 26.5714H35.846C35.4577 26.5714 35.1429 26.8862 35.1429 27.2745V27.5826C35.1429 27.9709 35.4577 28.2857 35.846 28.2857H41.2969C41.6852 28.2857 42 27.9709 42 27.5826V27.2745C42 26.8862 41.6852 26.5714 41.2969 26.5714Z"/><path fill="#D0D4D8" d="M35.846 9.42859H41.2969C41.6852 9.42859 42 9.74339 42 10.1317V10.4397C42 10.8281 41.6852 11.1429 41.2969 11.1429H35.846C35.4577 11.1429 35.1429 10.8281 35.1429 10.4397V10.1317C35.1429 9.74339 35.4577 9.42859 35.846 9.42859Z"/><path fill="#D0D4D8" d="M41.2969 23.1429H37.5603C37.172 23.1429 36.8572 23.4577 36.8572 23.846V24.154C36.8572 24.5424 37.172 24.8572 37.5603 24.8572H41.2969C41.6852 24.8572 42 24.5424 42 24.154V23.846C42 23.4577 41.6852 23.1429 41.2969 23.1429Z"/><path fill="#D0D4D8" d="M37.5603 12.8572H41.2969C41.6852 12.8572 42 13.172 42 13.5603V13.8683C42 14.2567 41.6852 14.5715 41.2969 14.5715H37.5603C37.172 14.5715 36.8572 14.2567 36.8572 13.8683V13.5603C36.8572 13.172 37.172 12.8572 37.5603 12.8572Z"/><path fill="#D0D4D8" d="M41.2969 16.2857H39.2745C38.8862 16.2857 38.5714 16.6005 38.5714 16.9888V17.2969C38.5714 17.6852 38.8862 18 39.2745 18H41.2969C41.6852 18 42 17.6852 42 17.2969V16.9888C42 16.6005 41.6852 16.2857 41.2969 16.2857Z"/><path fill="#D0D4D8" d="M39.2745 19.7143H41.2969C41.6852 19.7143 42 20.0291 42 20.4174V20.7255C42 21.1138 41.6852 21.4286 41.2969 21.4286H39.2745C38.8862 21.4286 38.5714 21.1138 38.5714 20.7255V20.4174C38.5714 20.0291 38.8862 19.7143 39.2745 19.7143Z"/><path fill="#D0D4D8" d="M41.2968 33.4286H25.5602C25.1719 33.4286 24.8571 33.7434 24.8571 34.1317V34.4397C24.8571 34.8281 25.1719 35.1429 25.5602 35.1429H41.2968C41.6852 35.1429 42 34.8281 42 34.4397V34.1317C42 33.7434 41.6852 33.4286 41.2968 33.4286Z"/><path fill="#D0D4D8" d="M18.7031 33.4286H22.4397C22.8281 33.4286 23.1429 33.7434 23.1429 34.1317V34.4397C23.1429 34.8281 22.8281 35.1429 22.4397 35.1429H18.7031C18.3148 35.1429 18 34.8281 18 34.4397V34.1317C18 33.7434 18.3148 33.4286 18.7031 33.4286Z"/><path fill="#D0D4D8" d="M41.2968 40.2857H32.4174C32.029 40.2857 31.7142 40.6005 31.7142 40.9888V41.2969C31.7142 41.6852 32.029 42 32.4174 42H41.2968C41.6851 42 41.9999 41.6852 41.9999 41.2969V40.9888C41.9999 40.6005 41.6851 40.2857 41.2968 40.2857Z"/><path fill="#D0D4D8" d="M18.7031 40.2857H29.2969C29.6852 40.2857 30 40.6005 30 40.9888V41.2969C30 41.6852 29.6852 42 29.2969 42H18.7031C18.3148 42 18 41.6852 18 41.2969V40.9888C18 40.6005 18.3148 40.2857 18.7031 40.2857Z"/><path fill="#D0D4D8" d="M24.154 16.2857H18.7031C18.3148 16.2857 18 16.6005 18 16.9888V17.2969C18 17.6852 18.3148 18 18.7031 18H24.154C24.5423 18 24.8571 17.6852 24.8571 17.2969V16.9888C24.8571 16.6005 24.5423 16.2857 24.154 16.2857Z"/><path fill="#D0D4D8" d="M18.7031 19.7143H24.154C24.5423 19.7143 24.8571 20.0291 24.8571 20.4174V20.7255C24.8571 21.1138 24.5423 21.4286 24.154 21.4286H18.7031C18.3148 21.4286 18 21.1138 18 20.7255V20.4174C18 20.0291 18.3148 19.7143 18.7031 19.7143Z"/></g></g></g></svg>

<svg xmlns="http://www.w3.org/2000/svg" fill="none" aria-hidden="true" viewBox="0 0 48 48"><path fill="#BF85BF" d="M29.297 12.857h-7.165a.703.703 0 0 0-.703.703v.308c0 .389.314.704.703.704h7.165a.703.703 0 0 0 .703-.704v-.308a.703.703 0 0 0-.703-.703ZM6.703 19.714h8.88c.388 0 .703.315.703.703v.308a.703.703 0 0 1-.703.704h-8.88A.703.703 0 0 1 6 20.726v-.309c0-.388.315-.703.703-.703Zm26.022 6.857h-5.45a.703.703 0 0 0-.704.703v.309c0 .388.315.703.703.703h5.451a.703.703 0 0 0 .704-.703v-.308a.703.703 0 0 0-.704-.704Zm-17.142 6.858h-8.88a.703.703 0 0 0-.703.703v.308c0 .388.315.703.703.703h8.88a.703.703 0 0 0 .703-.703v-.308a.703.703 0 0 0-.703-.703ZM6.703 30h2.022c.389 0 .704.315.704.703v.308a.703.703 0 0 1-.704.703H6.703A.703.703 0 0 1 6 31.011v-.308c0-.388.315-.703.703-.703Z"/><path fill="#EA5E5E" d="M6.703 9.429h5.451c.388 0 .703.314.703.703v.308a.703.703 0 0 1-.703.703h-5.45A.703.703 0 0 1 6 10.44v-.308c0-.389.315-.703.703-.703Zm17.451 17.142H16.99a.703.703 0 0 0-.703.703v.309c0 .388.315.703.703.703h7.165a.703.703 0 0 0 .703-.703v-.308a.703.703 0 0 0-.703-.704Zm-8.571 13.715h-8.88a.703.703 0 0 0-.703.703v.308c0 .388.315.703.703.703h8.88a.703.703 0 0 0 .703-.703v-.308a.703.703 0 0 0-.703-.703ZM8.725 23.143H6.703a.703.703 0 0 0-.703.703v.308c0 .388.315.703.703.703h2.022a.703.703 0 0 0 .704-.703v-.308a.703.703 0 0 0-.704-.703Zm18.549-6.857h8.88c.388 0 .703.314.703.703v.308a.703.703 0 0 1-.703.703h-8.88a.703.703 0 0 1-.703-.703v-.308c0-.389.315-.703.703-.703Z"/><path fill="#F7BA3E" d="M15.274 9.429h17.451c.389 0 .704.314.704.703v.308a.703.703 0 0 1-.704.703h-17.45a.703.703 0 0 1-.704-.703v-.308c0-.389.315-.703.704-.703ZM13.56 36.857h2.023c.388 0 .703.315.703.703v.308a.703.703 0 0 1-.703.703H13.56a.703.703 0 0 1-.703-.703v-.308c0-.388.315-.703.703-.703Zm-3.12-20.571H6.703a.703.703 0 0 0-.703.703v.308c0 .388.315.703.703.703h3.737a.703.703 0 0 0 .703-.703v-.308a.703.703 0 0 0-.703-.703Zm1.406 6.857h5.45c.39 0 .704.315.704.703v.308a.703.703 0 0 1-.703.703h-5.451a.703.703 0 0 1-.703-.703v-.308c0-.388.315-.703.703-.703ZM27.583 30H11.846a.703.703 0 0 0-.703.703v.308c0 .389.315.703.703.703h15.737a.703.703 0 0 0 .703-.703v-.308a.703.703 0 0 0-.703-.703Zm-.309-10.286h8.88c.388 0 .703.315.703.703v.308a.703.703 0 0 1-.703.704h-8.88a.703.703 0 0 1-.703-.703v-.309c0-.388.315-.703.703-.703Z"/><path fill="#56B3B4" d="M6.703 6h20.88c.388 0 .703.315.703.703v.308a.703.703 0 0 1-.703.703H6.703A.703.703 0 0 1 6 7.011v-.308C6 6.315 6.315 6 6.703 6Zm27.737 6.857h-2.023a.703.703 0 0 0-.703.703v.308c0 .389.315.704.703.704h2.023a.703.703 0 0 0 .703-.704v-.308a.703.703 0 0 0-.703-.703ZM13.868 26.571H6.703a.703.703 0 0 0-.703.703v.309c0 .388.315.703.703.703h7.165a.703.703 0 0 0 .703-.703v-.308a.703.703 0 0 0-.703-.704Zm-.308-10.285h2.023c.388 0 .703.314.703.703v.308a.703.703 0 0 1-.703.703H13.56a.703.703 0 0 1-.703-.703v-.308c0-.389.315-.703.703-.703Zm-3.12 20.571H6.703A.703.703 0 0 0 6 37.56v.308c0 .389.315.703.703.703h3.737a.703.703 0 0 0 .703-.703v-.308a.703.703 0 0 0-.703-.703Zm9.977-13.714H34.44c.388 0 .703.315.703.703v.308a.703.703 0 0 1-.703.703H20.417a.703.703 0 0 1-.703-.703v-.308c0-.388.315-.703.703-.703Zm-1.406-10.286H6.703A.703.703 0 0 0 6 13.56v.308c0 .389.315.704.703.704h12.308a.703.703 0 0 0 .703-.704v-.308a.703.703 0 0 0-.703-.703Z"/><path fill="#D0D4D8" d="M30.703 6h10.594c.388 0 .703.315.703.703v.308a.703.703 0 0 1-.703.703H30.703A.703.703 0 0 1 30 7.011v-.308c0-.388.315-.703.703-.703Zm-12 30.857h7.165c.389 0 .703.315.703.703v.308a.703.703 0 0 1-.703.703h-7.165a.703.703 0 0 1-.703-.703v-.308c0-.388.315-.703.703-.703Zm10.286 0h2.022c.389 0 .703.315.703.703v.308a.703.703 0 0 1-.703.703H28.99a.703.703 0 0 1-.703-.703v-.308c0-.388.314-.703.703-.703Zm12.308 0h-7.165a.703.703 0 0 0-.703.703v.308c0 .389.314.703.703.703h7.165a.703.703 0 0 0 .703-.703v-.308a.703.703 0 0 0-.703-.703ZM34.44 30h-3.737a.703.703 0 0 0-.703.703v.308c0 .389.315.703.703.703h3.737a.703.703 0 0 0 .703-.703v-.308A.703.703 0 0 0 34.44 30Zm3.12 0h3.737c.388 0 .703.315.703.703v.308a.703.703 0 0 1-.703.703H37.56a.703.703 0 0 1-.703-.703v-.308c0-.388.315-.703.703-.703Zm3.737-3.429h-5.451a.703.703 0 0 0-.703.703v.309c0 .388.315.703.703.703h5.45a.703.703 0 0 0 .704-.703v-.308a.703.703 0 0 0-.703-.704ZM35.846 9.429h5.45c.39 0 .704.314.704.703v.308a.703.703 0 0 1-.703.703h-5.451a.703.703 0 0 1-.703-.703v-.308c0-.389.315-.703.703-.703Zm5.451 13.714H37.56a.703.703 0 0 0-.703.703v.308c0 .388.315.703.703.703h3.737a.703.703 0 0 0 .703-.703v-.308a.703.703 0 0 0-.703-.703ZM37.56 12.857h3.737c.388 0 .703.315.703.703v.308a.703.703 0 0 1-.703.704H37.56a.703.703 0 0 1-.703-.704v-.308c0-.388.315-.703.703-.703Zm3.737 3.429h-2.022a.703.703 0 0 0-.704.703v.308c0 .388.315.703.704.703h2.022a.703.703 0 0 0 .703-.703v-.308a.703.703 0 0 0-.703-.703Zm-2.022 3.428h2.022c.388 0 .703.315.703.703v.308a.703.703 0 0 1-.703.704h-2.022a.703.703 0 0 1-.704-.703v-.309c0-.388.315-.703.704-.703Zm2.022 13.715H25.56a.703.703 0 0 0-.703.703v.308c0 .388.315.703.703.703h15.737A.703.703 0 0 0 42 34.44v-.308a.703.703 0 0 0-.703-.703Zm-22.594 0h3.737c.388 0 .703.314.703.703v.308a.703.703 0 0 1-.703.703h-3.737A.703.703 0 0 1 18 34.44v-.308c0-.389.315-.703.703-.703Zm22.594 6.857h-8.88a.703.703 0 0 0-.703.703v.308c0 .388.315.703.703.703h8.88a.703.703 0 0 0 .703-.703v-.308a.703.703 0 0 0-.703-.703Zm-22.594 0h10.594c.388 0 .703.314.703.703v.308a.703.703 0 0 1-.703.703H18.703a.703.703 0 0 1-.703-.703v-.308c0-.389.315-.703.703-.703Zm5.451-24h-5.45a.703.703 0 0 0-.704.703v.308c0 .388.315.703.703.703h5.451a.703.703 0 0 0 .703-.703v-.308a.703.703 0 0 0-.703-.703Zm-5.451 3.428h5.451c.388 0 .703.315.703.703v.308a.703.703 0 0 1-.703.704h-5.45a.703.703 0 0 1-.704-.703v-.309c0-.388.315-.703.703-.703Z" opacity=".5"/></svg>
